symbols/be/SAI-VJH.svg

<?xml version="1.0" encoding="UTF-8" standalone="no"?>
<svg
   width="16.176884"
   height="20"
   viewBox="0 0 16.176884 20"
   version="1.1"
   id="svg10"
   sodipodi:docname="SAI-VJH.svg"
   inkscape:version="1.4.2 (ebf0e940d0, 2025-05-08)"
   xmlns:inkscape="http://www.inkscape.org/namespaces/inkscape"
   xmlns:sodipodi="http://sodipodi.sourceforge.net/DTD/sodipodi-0.dtd"
   xmlns="http://www.w3.org/2000/svg"
   xmlns:svg="http://www.w3.org/2000/svg">
  <sodipodi:namedview
     id="namedview10"
     pagecolor="#ffffff"
     bordercolor="#666666"
     borderopacity="1.0"
     inkscape:showpageshadow="2"
     inkscape:pageopacity="0.0"
     inkscape:pagecheckerboard="0"
     inkscape:deskcolor="#d1d1d1"
     inkscape:zoom="46.4"
     inkscape:cx="8.0818966"
     inkscape:cy="10"
     inkscape:window-width="1920"
     inkscape:window-height="1128"
     inkscape:window-x="0"
     inkscape:window-y="0"
     inkscape:window-maximized="1"
     inkscape:current-layer="svg10" />
  <defs
     id="defs4">
    <radialGradient
       id="radial-pattern-0"
       gradientUnits="userSpaceOnUse"
       cx="22.376717"
       cy="23.62672"
       fx="22.376717"
       fy="23.62672"
       r="5.348282"
       gradientTransform="matrix(-0.143579, 0.000000500028, 0.00000050875, 0.146084, 15.088449, 0.693863)">
      <stop
         offset="0"
         stop-color="rgb(21.568627%, 99.215686%, 3.921569%)"
         stop-opacity="1"
         id="stop1" />
      <stop
         offset="1"
         stop-color="rgb(16.470588%, 85.882353%, 0.784314%)"
         stop-opacity="1"
         id="stop2" />
    </radialGradient>
    <radialGradient
       id="radial-pattern-1"
       gradientUnits="userSpaceOnUse"
       cx="22.376717"
       cy="64.324425"
       fx="22.376717"
       fy="64.324425"
       r="5.148283"
       gradientTransform="matrix(-0.131415, 0.000000311241, 0.000000348228, 0.147032, 6.977603, -5.31243)">
      <stop
         offset="0"
         stop-color="rgb(100%, 81.176471%, 14.509804%)"
         stop-opacity="1"
         id="stop3" />
      <stop
         offset="1"
         stop-color="rgb(91.764706%, 60.392157%, 0%)"
         stop-opacity="1"
         id="stop4" />
    </radialGradient>
  </defs>
  <path
     fill-rule="nonzero"
     fill="#000000"
     fill-opacity="1"
     d="m 0,0 h 16.175781 v 5.941406 l -5.515625,5.320313 V 20 H 0 Z m 0,0"
     id="path4" />
  <path
     fill-rule="evenodd"
     fill="#ffffff"
     fill-opacity="1"
     d="m 3.671875,0.582031 h 8.234375 c 2.734375,0 4.960937,3.300781 2.617187,5.941407 L 10.171875,10.875 v 5.628906 c 0,1.355469 -1.355469,3.105469 -3.105469,3.105469 H 3.683593 c -1.667968,0 -3.21875,-1.667969 -3.21875,-3.105469 V 3.804688 c 0,-1.863282 1.746094,-3.222657 3.207032,-3.222657 z m 0.195312,0.597657 8.25,-0.015626 c 2.246094,0 3.800782,2.914063 2.054688,4.855469 l -4.582032,4.464844 v 5.632813 c 0,1.742187 -1.554687,3.027343 -3.03125,3.027343 H 4.054687 c -1.84375,0 -3.011718,-1.488281 -3.011718,-2.835937 V 4.007812 c 0,-1.679687 1.265624,-2.84375 2.824218,-2.828124 z m 0,0"
     id="path5" />
  <path
     fill-rule="nonzero"
     fill="url(#radial-pattern-0)"
     stroke-width="0.141509"
     stroke-linecap="butt"
     stroke-linejoin="miter"
     stroke="rgb(16.470588%, 85.490196%, 0.784314%)"
     stroke-opacity="0.72549"
     stroke-miterlimit="4"
     d="m 4.9140596,4.265626 c 0,0.5351569 -0.429688,0.9648439 -0.9609383,0.9648439 -0.5273436,0 -0.9648439,-0.429687 -0.9648439,-0.9648439 0,-0.5312504 0.4375003,-0.9609373 0.9648439,-0.9609373 0.5312503,0 0.9609383,0.4296869 0.9609383,0.9609373 z m 0,0"
     id="path6"
     style="fill:#37fd0a;fill-opacity:1;stroke:#37fd0a;stroke-width:0.75;stroke-dasharray:none;stroke-opacity:1" />
  <path
     fill="none"
     stroke-width="0.141509"
     stroke-linecap="butt"
     stroke-linejoin="miter"
     stroke="#3d3d3d"
     stroke-opacity="1"
     stroke-miterlimit="4"
     d="m 4.9140596,12.167972 c 0,0.53125 -0.429688,0.964844 -0.9609383,0.964844 -0.5273436,0 -0.9648439,-0.433594 -0.9648439,-0.964844 0,-0.53125 0.4375003,-0.964844 0.9648439,-0.964844 0.5312503,0 0.9609383,0.433594 0.9609383,0.964844 z m 0,0"
     id="path8" />
  <path
     fill-rule="nonzero"
     fill="url(#radial-pattern-1)"
     stroke-width="0.141509"
     stroke-linecap="butt"
     stroke-linejoin="miter"
     stroke="rgb(86.27451%, 52.54902%, 0%)"
     stroke-opacity="0.72549"
     stroke-miterlimit="4"
     d="m 12.984374,4.265626 c 0,0.5351569 -0.429687,0.9648439 -0.960938,0.9648439 -0.535157,0 -0.964844,-0.429687 -0.964844,-0.9648439 0,-0.5312504 0.429687,-0.9609373 0.964844,-0.9609373 0.531251,0 0.960938,0.4296869 0.960938,0.9609373 z m 0,0"
     id="path10"
     style="fill:#ffcf25;fill-opacity:1;stroke:#ffcf25;stroke-width:0.75;stroke-dasharray:none;stroke-opacity:1" />
</svg>

<?xml version="1.0" encoding="UTF-8"?>
<svg xmlns="http://www.w3.org/2000/svg" xmlns:xlink="http://www.w3.org/1999/xlink" width="16.176884" height="20" viewBox="0 0 16.176884 20">
<path fill-rule="nonzero" fill="rgb(0%, 0%, 0%)" fill-opacity="1" d="M 0 0 L 16.175781 0 L 16.175781 5.941406 L 10.660156 11.261719 L 10.660156 20 L 0 20 Z M 0 0 "/>
<path fill-rule="evenodd" fill="rgb(100%, 100%, 100%)" fill-opacity="1" d="M 3.671875 0.582031 L 11.90625 0.582031 C 14.640625 0.582031 16.867188 3.882812 14.523438 6.523438 L 10.171875 10.875 L 10.171875 16.503906 C 10.171875 17.859375 8.816406 19.609375 7.066406 19.609375 L 3.683594 19.609375 C 2.015625 19.609375 0.464844 17.941406 0.464844 16.503906 L 0.464844 3.804688 C 0.464844 1.941406 2.210938 0.582031 3.671875 0.582031 Z M 3.867188 1.179688 L 12.117188 1.164062 C 14.363281 1.164062 15.917969 4.078125 14.171875 6.019531 L 9.589844 10.484375 L 9.589844 16.117188 C 9.589844 17.859375 8.035156 19.144531 6.558594 19.144531 L 4.054688 19.144531 C 2.210938 19.144531 1.042969 17.65625 1.042969 16.308594 L 1.042969 4.007812 C 1.042969 2.328125 2.308594 1.164062 3.867188 1.179688 Z M 3.867188 1.179688 "/>
<path fill-rule="nonzero" fill="rgb(21.568627%, 99.215686%, 3.921569%)" fill-opacity="1" stroke-width="0.75" stroke-linecap="butt" stroke-linejoin="miter" stroke="rgb(21.568627%, 99.215686%, 3.921569%)" stroke-opacity="1" stroke-miterlimit="4" d="M 4.914062 4.265625 C 4.914062 4.800781 4.484375 5.230469 3.953125 5.230469 C 3.425781 5.230469 2.988281 4.800781 2.988281 4.265625 C 2.988281 3.734375 3.425781 3.304688 3.953125 3.304688 C 4.484375 3.304688 4.914062 3.734375 4.914062 4.265625 Z M 4.914062 4.265625 "/>
<path fill="none" stroke-width="0.141509" stroke-linecap="butt" stroke-linejoin="miter" stroke="rgb(23.921569%, 23.921569%, 23.921569%)" stroke-opacity="1" stroke-miterlimit="4" d="M 4.914062 12.167969 C 4.914062 12.699219 4.484375 13.132812 3.953125 13.132812 C 3.425781 13.132812 2.988281 12.699219 2.988281 12.167969 C 2.988281 11.636719 3.425781 11.203125 3.953125 11.203125 C 4.484375 11.203125 4.914062 11.636719 4.914062 12.167969 Z M 4.914062 12.167969 "/>
<path fill-rule="nonzero" fill="rgb(100%, 81.176471%, 14.509804%)" fill-opacity="1" stroke-width="0.75" stroke-linecap="butt" stroke-linejoin="miter" stroke="rgb(100%, 81.176471%, 14.509804%)" stroke-opacity="1" stroke-miterlimit="4" d="M 12.984375 4.265625 C 12.984375 4.800781 12.554688 5.230469 12.023438 5.230469 C 11.488281 5.230469 11.058594 4.800781 11.058594 4.265625 C 11.058594 3.734375 11.488281 3.304688 12.023438 3.304688 C 12.554688 3.304688 12.984375 3.734375 12.984375 4.265625 Z M 12.984375 4.265625 "/>
</svg>
